X:1
T:As a Tree Beside the Water
T:As a Tree Beside the Water
T:Alfred Henry Ackley
T:Alfred Henry Ackley, 1906
T:Public Domain Courtesy of the Cyber Hymnal™
C:Alfred Henry Ackley
Z:Public Domain
Z:Courtesy of the Cyber Hymnal™
%%score ( 1 2 ) ( 3 4 )
L:1/8
Q:1/4=110
M:4/4
K:Bb
V:1 treble 
V:2 treble 
V:3 bass 
V:4 bass 
V:1
 [DF]3 [^C=E] [CG]2 [DF]2 x2 | B3 A [FA]2 [EG]2 | A3 G F2 G2 x2 | [DF]2 [CE]2 [B,D]4 | %4
w: 1.~As a tree be-|side the wa- ter,|Has the Sav- ior|plant- ed me;|
w: 2.~Though the tem- pest|rage a- round me,|Through the storm my|Lord I see,|
w: 3.~When by grief my|heart is brok- en,|And the sun- shine|steals a- way,|
w: 4.~When at last I|stand be- fore Him,|Oh, what joy it|will af- ford,|
 [DF]3 [^C=E] [CG]2 [DF]2 x2 | [FB]3 [F=B] c2 G2 | [Ge]3 [FGd] [EGc]2 [^CGB]2 | %7
w: All my fruit shall|be in sea- son,|I shall live e-|
w: Point- ing up- ward|to that ha- ven,|Where my loved ones|
w: Then His grace, in|mer- cy giv- en,|Chang- es dark- ness|
w: Just to see the|sin- ner ran- somed,|And be- hold my|
 [DFB]2 [CEA]2 [DB]4 ||"^Refrain" [DF]3 [^C=E] [CG]2 F2 | E4- [CE]4 | [Ec]3 [D=B] [Fd]2 [Ec]2 | %11
w: ter- nal- ly.||||
w: wait for me.||||
w: in- to day.|I shall not be|moved, I|* shall not be|
w: sov- ereign Lord.||||
 F4 F4 | [EG]3 [EG] [EA]3 [EA] | [FB]2 [Fd]2 [_Af]2 [Ge]2 | [Fd]3 [FB] [EA]2 [Ec]2 | [DB]8 |] %16
w: |||||
w: |||||
w: moved, *|An- chored to the|Rock of Ag- es,|I shall not be|moved.|
w: |||||
V:2
 x10 | F4 x4 | E4- E4 x2 | x8 | x10 | x4 E4 | x8 | x8 || x6 (DB,) | A,A,A,A, x4 | x8 | %11
 (EDF-E D2 F2) | x8 | x8 | x8 | x8 |] %16
V:3
 B,3 G, B,2 x4 | B,8 | F,2 A,4 x4 | [F,-B,]2 [F,,F,]2 F,4 | B,3 G, B,2 x4 | B,3 G, G,2 C2 | %6
 [C,C]3 [D,=B,] [E,C]2 =E,2 | F,2- [F,,F,-]2 [B,,F,]4 || %8
 [B,,B,]3 [B,,G,] [B,,=E,]2 ([B,,F,][D,B,]) | ([C,F,][F,,F,][A,,F,][C,F,] [F,A,]4) | %10
 [F,A,]3 [F,^G,] [F,A,]2 [F,A,]2 | (C B,A,G, [B,,F,]2 [D,B,]2) | [E,B,]3 [E,B,] [C,F,]3 [C,F,] | %13
 [D,B,]2 [B,,B,]2 [D,B,]2 [E,B,]2 | [F,B,]3 [F,D] [F,C]2 [F,A,]2 | [B,,F,]8 |] %16
V:4
 B,,8 (=E,G,) | D,4 E,4 | F,8 CB, | x4 (B,,B,,D,F,) | B,,8 (=E,G,) | D,4 C,4 | x8 | x8 || x8 | x8 | %10
 x8 | B,,4- x4 | x8 | x8 | x8 | x8 |] %16

